X: 1
T: Orsapolska
O: efter Bj\"orn St\aabi
M: 3/4
L: 1/8
K: Ddor
|: A>^c {c}d>e ((3fed) | ^c>e {e}a3 e | {g}a>^f d2 (d>B) | ({B}d^c) A4 :|
|: e>^c e2 ((3efg) | a>b [a2A2] g2 | (f/g/f/e/) (d>^c) d>e | (f>g) Tf2 e>^c | (A^c) d4 :|
